client/src/shared/assets/icons/bell.svg

<svg width="16" height="20" viewBox="0 0 16 20" fill="none" xmlns="http://www.w3.org/2000/svg">
<path fill-rule="evenodd" clip-rule="evenodd" d="M8 0.5C4.56356 0.5 1.77778 3.33553 1.77778 6.83333V9.51224C1.77778 10.6935 1.31676 11.8264 0.496124 12.6617C0.178462 12.985 0 13.4235 0 13.8808V14.6707C0 15.3391 0.532364 15.881 1.18908 15.881H4.50044C4.50044 16.2108 4.50708 16.9282 4.88458 17.6258C5.48708 18.7392 6.65502 19.5 8 19.5C9.34498 19.5 10.5129 18.7392 11.1154 17.6258C11.4929 16.9282 11.4996 16.2108 11.4996 15.881H14.8109C15.4676 15.881 16 15.3391 16 14.6707V13.8808C16 13.4235 15.8215 12.985 15.5039 12.6617C14.6833 11.8264 14.2222 10.6935 14.2222 9.51224V6.83333C14.2222 3.33553 11.4364 0.5 8 0.5ZM9.72178 15.881C9.72178 16.1813 9.70062 16.4897 9.55822 16.7528C9.25662 17.3101 8.67476 17.6882 8.00587 17.6905H8H7.99404C7.32524 17.6882 6.74338 17.3101 6.44178 16.7528C6.29938 16.4897 6.27822 16.1813 6.27822 15.881H9.72178Z" fill="#1E6ECF"/>
</svg>

<svg xmlns="http://www.w3.org/2000/svg" fill="currentColor" viewBox="0 0 16 20"><path fill-rule="evenodd" d="M8 .5C4.564.5 1.778 3.336 1.778 6.833v2.68a4.5 4.5 0 0 1-1.282 3.149A1.74 1.74 0 0 0 0 13.88v.79a1.2 1.2 0 0 0 1.19 1.21H4.5c0 .33.007 1.047.385 1.745A3.55 3.55 0 0 0 8 19.5c1.345 0 2.513-.76 3.115-1.874.378-.698.385-1.415.385-1.745h3.31a1.2 1.2 0 0 0 1.19-1.21v-.79a1.74 1.74 0 0 0-.496-1.22 4.5 4.5 0 0 1-1.282-3.149V6.833C14.222 3.336 11.436.5 8 .5m1.722 15.381c0 .3-.021.609-.164.872a1.77 1.77 0 0 1-1.552.938h-.012a1.77 1.77 0 0 1-1.552-.938c-.143-.263-.164-.572-.164-.872z" clip-rule="evenodd"/></svg>
